(
// Dust randomly triggers Decay to create an exponential
// decay envelope for the WhiteNoise input source
{
z = Decay.ar(Dust.ar(1,0.5), 0.3, WhiteNoise.ar);
DelayL.ar(z, 0.2, 0.2, 1, z); // input is mixed with delay via the add input
}.play
)

(
// recursive application of delay.
{
z = Decay2.ar(Dust.ar(1, 0.5), 0.01, 0.1, Saw.ar(100 + [0, 1]));
// z = Decay2.ar(Dust.ar(1, 0.5), 0.01, 0.1);
5.do { |i| z = DelayL.ar(RLPF.ar(z, Rand(100, 3000), 0.03), 1, 1 / (2**i), 1, z * 0.5) };
z
}.play
)